symbols/web/phonelink_setup/materialsymbolssharp/phonelink_setup_wght200grad200_40px.svg

<svg xmlns="http://www.w3.org/2000/svg" height="40" width="40"><path d="M11.292 35.458h17.416v-2.083H11.292Zm0-28.833h17.416V4.542H11.292Zm-2.125 31V2.375h21.666v10.042h-2.125V8.75H11.292v22.5h17.416v-3.708h2.125v10.083ZM28.833 25.5l-.125-1.542q-.625-.083-1.062-.354-.438-.271-.729-.604l-1.292.625-1.042-1.583 1.209-.917q-.209-.5-.209-1.125t.209-1.125l-1.209-.917.959-1.625 1.375.709q.291-.417.729-.688.437-.271 1.062-.354l.125-1.542h1.917L30.875 16q.625.083 1.042.354.416.271.75.688l1.375-.709.958 1.625-1.208.917q.166.5.166 1.125t-.166 1.125l1.208.917-1.042 1.583L32.667 23q-.334.333-.75.604-.417.271-1.084.354L30.75 25.5Zm.959-2.958q1.041 0 1.812-.75.771-.75.771-1.834 0-1.041-.771-1.791t-1.812-.75q-1.084 0-1.834.75t-.75 1.791q0 1.084.75 1.834t1.834.75Zm-18.5-15.917V4.542v2.083Zm0 28.833v-2.083 2.083Z"/></svg>

<svg xmlns="http://www.w3.org/2000/svg" height="40" width="40"><path d="M11.292 35.458H28.708V33.375H11.292ZM11.292 6.625H28.708V4.542H11.292ZM9.167 37.625V2.375H30.833V12.417H28.708V8.75H11.292V31.25H28.708V27.542H30.833V37.625ZM28.833 25.5 28.708 23.958Q28.083 23.875 27.646 23.604Q27.208 23.333 26.917 23L25.625 23.625L24.583 22.042L25.792 21.125Q25.583 20.625 25.583 20Q25.583 19.375 25.792 18.875L24.583 17.958L25.542 16.333L26.917 17.042Q27.208 16.625 27.646 16.354Q28.083 16.083 28.708 16L28.833 14.458H30.75L30.875 16Q31.5 16.083 31.917 16.354Q32.333 16.625 32.667 17.042L34.042 16.333L35 17.958L33.792 18.875Q33.958 19.375 33.958 20Q33.958 20.625 33.792 21.125L35 22.042L33.958 23.625L32.667 23Q32.333 23.333 31.917 23.604Q31.5 23.875 30.833 23.958L30.75 25.5ZM29.792 22.542Q30.833 22.542 31.604 21.792Q32.375 21.042 32.375 19.958Q32.375 18.917 31.604 18.167Q30.833 17.417 29.792 17.417Q28.708 17.417 27.958 18.167Q27.208 18.917 27.208 19.958Q27.208 21.042 27.958 21.792Q28.708 22.542 29.792 22.542ZM11.292 6.625V4.542V6.625ZM11.292 35.458V33.375V35.458Z"/></svg>
